X:1
T:Chicken Patty.
T:Chicken Patty.
T:A Little Rag Pie.
T:THEODORE MORSE.
T: (Good enough to eat.) 
T:Copyright 1908 by F. B. Haviland Pub. Co. Inc.,
T:Copyright 1908 by F. B. Haviland Pub. Co. Inc.,
T:Copyright 1908 by F. B. Haviland Pub. Co. Inc.,
T:Copyright 1908 by F. B. Haviland Pub. Co. Inc.,
C:THEODORE MORSE.
Z:Copyright 1908 by F. B. Haviland Pub. Co. Inc.,
%%score { ( 1 3 ) | 2 }
L:1/8
Q:1/4=80
M:2/4
K:Eb
V:1 treble nm="Piano" snm="Pno."
V:3 treble 
V:2 bass 
V:1
|:"^Slow."!f!{Bcd} e[^Fe^f]/[Geg]/- [Geg]/[Fef][Geg]/ |!>(! [_CE_c]2 [B,DB]2!>)! | %2
{Bcd} e[^Fe^f]/[Geg]/- [Geg]/[Fef][Geg]/ |!>(! [_CE_c]2 [B,DB]2!>)! |{Bcd} ed/e/- e/d/e/f/ | %5
 g^f/g/- g/=a/b/c'/ | [d^fd']/[^c^c']/[dd']/[efe']/- [efe'][dfd'] | [GBdg] z z2 | %8
{Bcd} e[^Fe^f]/[Geg]/- [Geg]/[Fef][Geg]/ |!>(! [_CE_c]2 [B,DB]2!>)! | %10
{Bcd} e[^Fe^f]/[Geg]/- [Geg]/[Fef][Geg]/ |!>(! [_CE_c]2 [B,DB]2!>)! |{Bcd} ed/e/- e/d/e/f/ | %13
 g/bc'/ [egd']/c'/b/g/ | f/gc/ fg |1 [GBe]d cB :|2 [GBe] (3B,/=A,/B,/ _CB, |: %17
!mf! B,/C/D/C/- C/D/B, | CD/B,/- B,/C/D | EF/G/- G/^FG/ | E=F/G/- G/^F/G | %21
 [Ba]/c/d/[ca]/- [ca]/d/[Ba] | [ca]d/[Ba]/- [Ba]/c/[da] | e/f/g/[Bgb]/- [Bgb][cc'] | %24
 [d^fd'][cfc']/[Bgb]/- [Bgb] z | B,/C/D/C/- C/D/B, | CD/B,/- B,/C/D | EF/G/- G/^FG/ | %28
 E=F/G/- G/^F/G | [Ba]/c/d/[ca]/- [ca]/d/[Ba] | [Ba]/c/d/[Bg]/- [Bg]/[=A^f]/[Bg] |1 %31
 [Ge]/f/g/b/- b/g/f | e/c/B/G/- G/F/E/C/ :|2 [Ge] z z2 | z2 [egbe'] z/ (3B/4c/4d/4 || %35
 e[^Fe^f]/[Geg]/- [Geg]/[Fef][Geg]/ |!>(! [_CE_c]2 [B,DB]2!>)! | %37
{Bcd} e[^Fe^f]/[Geg]/- [Geg]/[Fef][Geg]/ |!>(! [_CE_c]2 [B,DB]2!>)! |{Bcd} ed/e/- e/d/e/f/ | %40
 g^f/g/- g/=a/b/c'/ | [d^fd']/[^c^c']/[dd']/[efe']/- [efe'][dfd'] | [GBdg] z z2 | %43
{Bcd} e[^Fe^f]/[Geg]/- [Geg]/[Fef][Geg]/ |!>(! [_CE_c]2 [B,DB]2!>)! | %45
{Bcd} e[^Fe^f]/[Geg]/- [Geg]/[Fef][Geg]/ |!>(! [_CE_c]2 [B,DB]2!>)! |{Bcd} ed/e/- e/d/e/f/ | %48
 g/bc'/ [egd']/c'/b/g/ | f/gc/ fg | [GBe] z !>![egbe'] z |: %51
[K:Ab]!f! [cec']/b/a/[cec']/- [cec']/b/[cea] | [cec']/b/a/[cec']/- [cec']/b/[cea] | [FAcf]4- | %54
 [FAcf] z z2 | [deb]/a/g/[deb]/- [deb]/a/[deg] | [deb]/a/g/[deb]/- [deb]/a/[deg] | [Acea]4- | %58
 [Acea] z z2 | [cec']/b/a/[cec']/- [cec']/b/[cea] | [cec']/b/a/[cec']/- [cec']/b/[cea] | [FAcf]4- | %62
 [FAcf] z z2 | [deb]/a/g/[deb]/- [deb]/a/[deg] | [deb]/a/g/[deb]/- [deb]/g/[deb] |1 [cea]4 | z4 :|2 %67
 [cea]4- | [cea] z z!8va(! !>![ac'e'a']!8va)! ||!mf! e/=d/_d/c/- c/_c/B | =A/_A/G/_G/- G/F/_F | %71
 E/F/G/F/- F/G/E |!f! z4 |!mf! g/_g/f/=e/- e/_e/=d | _d/c/_c/B/- B/=A/_A | G/A/B/A/- A/B/G | %76
!f! z4 |!mf! e/f/g/[ea]/- [ea]/[ea]/[eg] |!f! z4 |!mf! [eg]/a/b/[a_c']/- [ac']/[ac']/[gb] |!f! z4 | %81
"_cresc." [ee']/[=d=d']/[ee']/!<(![ff']/- [ff']/[_f_f']/[ee'] | %82
 [=d=d']/[_d_d']/[cc']/[_c_c']/- [cc']/[Bb]/[=A=a]!<)! | %83
 [_A_a]/[Gg]/[_G_g]/[Ff]/- [Ff]/[Ee]/[=D=d] |!<(! [Ee][EGBe] [EAce][EGde]!<)! | %85
!ff! [cec']/b/a/[cec']/- [cec']/b/[cea] | [cec']/b/a/[cec']/- [cec']/b/[cea] | [FAcf]4- | %88
 [FAcf] z z2 | [deb]/a/g/[deb]/- [deb]/a/[deg] | [deb]/a/g/[deb]/- [deb]/a/[deg] | [Acea]4- | %92
 [Acea] z z2 | [cec']/b/a/[cec']/- [cec']/b/[cea] | [cec']/b/a/[cec']/- [cec']/b/[cea] | [FAcf]4- | %96
 [FAcf] z z2 | [deb]/a/g/[deb]/- [deb]/a/[deg] | [deb]/a/g/[deb]/- [deb]/g/[deb] | [cea]4- | %100
 [cea] z z!8va(! !>![ac'e'a']!8va)! |] %101
V:2
|: E,,[G,B,E] [B,,,B,,][G,B,E] | [=A,,_G,]2 [_A,,F,]!>!B,, | [E,,E,][G,B,E] [B,,,B,,][G,B,E] | %3
 [=A,,_G,]2 [_A,,F,]!>!B,, | [E,,E,][G,B,E] [B,,,B,,][G,B,E] | [G,,G,][G,B,D] [G,,G,][G,B,D] | %6
 [D,,D,][^F,CD] [D,,D,][F,CD] | [G,,G,]/[^F,,^F,]/[G,,G,]/[B,,B,]/- [B,,B,]/[A,,A,]/[=F,,=F,] | %8
 E,,[G,B,E] [B,,,B,,][G,B,E] | [=A,,_G,]2 [_A,,F,]!>!B,, | [E,,E,][G,B,E] [B,,,B,,][G,B,E] | %11
 [=A,,_G,]2 [_A,,F,]!>!B,, | [E,,E,][G,B,E] [B,,,B,,][G,B,E] | [E,,E,][G,B,E] [E,,E,][G,B,E] | %14
 [F,,F,][F,=A,E] [B,,,B,,][B,,,B,,] |1 [E,,E,][D,D] [C,C][B,,B,] :|2 %16
 [E,,E,] (3B,,/=A,,/B,,/ _C,B,, |: D,/E,/F,/E,/- E,/F,/D, | E,F,/D,/- D,/E,/F, | %19
 G,A,/B,/- B,/=A,B,/ | G,_A,/B,/- B,/=A,/B, | [F,,F,][F,_A,B,D] [B,,,B,,][F,A,B,D] | %22
 [F,,F,][F,A,B,D] [B,,,B,,][F,A,B,D] | [E,E][B,EG] [B,,B,][B,EG] | %24
 [=A,,=A,][A,E^F] [B,,B,]/(G,/F,/E,/) | D,/E,/F,/E,/- E,/F,/D, | E,F,/D,/- D,/E,/F, | %27
 G,A,/B,/- B,/=A,B,/ | G,_A,/B,/- B,/=A,/B, | [F,,F,][F,_A,B,D] [B,,,B,,][F,A,B,D] | %30
 [F,,F,][F,A,B,D] [B,,,B,,][F,A,B,D] |1 [E,,E,] z z2 | z4 :|2 %33
 [E,,E,][B,,B,]/[C,C]/- [C,C]/[B,,B,]/[G,,G,] | [E,,E,] z [E,,E,] z || %35
 E,,[G,B,E] [B,,,B,,][G,B,E] | [=A,,_G,]2 [_A,,F,]!>!B,, | [E,,E,][G,B,E] [B,,,B,,][G,B,E] | %38
 [=A,,_G,]2 [_A,,F,]!>!B,, | [E,,E,][G,B,E] [B,,,B,,][G,B,E] | [G,,G,][G,B,D] [G,,G,][G,B,D] | %41
 [D,,D,][^F,CD] [D,,D,][F,CD] | [G,,G,]/[^F,,^F,]/[G,,G,]/[B,,B,]/- [B,,B,]/[A,,A,]/[=F,,=F,] | %43
 E,,[G,B,E] [B,,,B,,][G,B,E] | [=A,,_G,]2 [_A,,F,]!>!B,, | [E,,E,][G,B,E] [B,,,B,,][G,B,E] | %46
 [=A,,_G,]2 [_A,,F,]!>!B,, | [E,,E,][G,B,E] [B,,,B,,][G,B,E] | [E,,E,][G,B,E] [E,,E,][G,B,E] | %49
 [F,,F,][F,=A,E] [B,,,B,,][B,,,B,,] | [E,,E,] z !>![E,,,E,,] z |: %51
[K:Ab] [A,,A,][E,A,C] [E,,E,][E,A,C] | [A,,A,][E,A,C] [E,,E,][E,A,C] | %53
 [F,,F,]/[G,,G,]/[A,,A,]/[G,,G,]/- [G,,G,]/[A,,A,]/[F,,F,] | %54
 [F,,,F,,]/[G,,,G,,]/[A,,,A,,]/[G,,,G,,]/- [G,,,G,,]/[A,,,A,,]/[F,,,F,,] | %55
 [E,,E,][E,G,D] [E,,E,][E,G,D] | [E,,E,][E,G,D] [E,,E,][E,G,D] | %57
 [A,,A,]/[B,,B,]/[C,C]/[B,,B,]/- [B,,B,]/[A,,A,]/[F,,F,] | %58
 [E,,E,]/[F,,F,]/[G,,G,]/[F,,F,]/- [F,,F,]/[E,,E,]/[B,,,B,,] | [A,,A,][E,A,C] [E,,E,][E,A,C] | %60
 [A,,A,][E,A,C] [E,,E,][E,A,C] | [F,,F,]/[G,,G,]/[A,,A,]/[G,,G,]/- [G,,G,]/[A,,A,]/[F,,F,] | %62
 [F,,,F,,]/[G,,,G,,]/[A,,,A,,]/[G,,,G,,]/- [G,,,G,,]/[A,,,A,,]/[F,,,F,,] | %63
 [E,,E,][E,G,D] [E,,E,][E,G,D] | [E,,E,][E,G,D] [E,,E,][E,G,D] |1 %65
 [A,,A,]/[B,,B,]/[C,C]/[B,,B,]/- [B,,B,]/[A,,A,]/[F,,F,] | %66
 [E,,E,]/[F,,F,]/[G,,G,]/[F,,F,]/- [F,,F,]/[G,,G,]/[E,,E,] :|2 %67
 [A,,A,]/[B,,B,]/[C,C]/[B,,B,]/- [B,,B,]/[A,,A,]/[F,,F,] | %68
 [E,,E,]/[C,,C,][B,,,B,,]/ [A,,,A,,] !>![A,,,A,,] || x4 | x4 | G,/A,/B,/A,/- A,/B,/G, | %72
 [E,,E,]/[F,,F,]/[G,,G,]/[F,,F,]/- [F,,F,]/[G,,G,]/[E,,E,] | x4 | x4 | x4 | %76
 [G,,G,]/[A,,A,]/[B,,B,]/[A,,A,]/- [A,,A,]/[B,,B,]/[G,,G,] | x4 | %78
 [E,,E,]/[F,,F,]/[G,,G,]/[A,,A,]/- [A,,A,]/[A,,A,]/[G,,G,] | x4 | %80
 [G,,G,]/[A,,A,]/[B,,B,]/[_C,_C]/- [C,C]/[C,C]/[B,,B,] | %81
 [E,E]/[=D,=D]/[E,E]/[F,F]/- [F,F]/[_F,_F]/[E,E] | %82
 [=D,=D]/[_D,_D]/[C,C]/[_C,_C]/- [C,C]/[B,,B,]/[=A,,=A,] | %83
 [_A,,_A,]/[G,,G,]/[_G,,_G,]/[F,,F,]/- [F,,F,]/[E,,E,]/[=D,,=D,] | %84
 [E,,E,][_D,,_D,] [C,,C,][B,,,B,,] | [A,,A,][E,A,C] [E,,E,][E,A,C] | %86
 [A,,A,][E,A,C] [E,,E,][E,A,C] | [F,,F,]/[G,,G,]/[A,,A,]/[G,,G,]/- [G,,G,]/[A,,A,]/[F,,F,] | %88
 [F,,,F,,]/[G,,,G,,]/[A,,,A,,]/[G,,,G,,]/- [G,,,G,,]/[A,,,A,,]/[F,,,F,,] | %89
 [E,,E,][E,G,D] [E,,E,][E,G,D] | [E,,E,][E,G,D] [E,,E,][E,G,D] | %91
 [A,,A,]/[B,,B,]/[C,C]/[B,,B,]/- [B,,B,]/[A,,A,]/[F,,F,] | %92
 [E,,E,]/[F,,F,]/[G,,G,]/[F,,F,]/- [F,,F,]/[E,,E,]/[B,,,B,,] | [A,,A,][E,A,C] [E,,E,][E,A,C] | %94
 [A,,A,][E,A,C] [E,,E,][E,A,C] | [F,,F,]/[G,,G,]/[A,,A,]/[G,,G,]/- [G,,G,]/[A,,A,]/[F,,F,] | %96
 [F,,,F,,]/[G,,,G,,]/[A,,,A,,]/[G,,,G,,]/- [G,,,G,,]/[A,,,A,,]/[F,,,F,,] | %97
 [E,,E,][E,G,D] [E,,E,][E,G,D] | [E,,E,][E,G,D] [E,,E,][E,G,D] | %99
 [A,,A,]/[B,,B,]/[C,C]/[B,,B,]/- [B,,B,]/[A,,A,]/[F,,F,] | %100
 [E,,E,]/[C,,C,][B,,,B,,]/ [A,,,A,,] !>![A,,,A,,] |] %101
V:3
|: x4 | x4 | x4 | x4 | x4 | x4 | x4 | x4 | x4 | x4 | x4 | x4 | x4 | x4 | [=Ae]2 [_Ad][Bd] |1 x4 :|2 %16
 x4 |: x4 | x4 | x4 | x4 | x4 | x4 | x4 | x4 | x4 | x4 | x4 | x4 | x4 | x4 |1 x4 | x4 :|2 x4 | %34
 x4 || x4 | x4 | x4 | x4 | x4 | x4 | x4 | x4 | x4 | x4 | x4 | x4 | x4 | x4 | [=Ae]2 [_Ad][Bd] | %50
 x4 |:[K:Ab] x4 | x4 | x4 | x4 | x4 | x4 | x4 | x4 | x4 | x4 | x4 | x4 | x4 | x4 |1 x4 | x4 :|2 %67
 x4 | x3!8va(! x!8va)! || G/_G/F/=E/- E/_E/=D | _D/C/_C/B,/- B,/=A,/_A, | x4 | x4 | %73
 B/=A/_A/G/- G/_G/F | _F/E/=D/_D/- D/C/_C | B,/=C/D/C/- C/D/B, | x4 | G/A/B/_c/- c/c/B | x4 | %79
 B/_c/d/e/- e/e/d | x4 | x4 | x4 | x4 | x4 | x4 | x4 | x4 | x4 | x4 | x4 | x4 | x4 | x4 | x4 | x4 | %96
 x4 | x4 | x4 | x4 | x3!8va(! x!8va)! |] %101

